; G-Code generated by Simplify3D(R) Version 4.1.2
; Feb 9, 2020 at 6:08:03 PM
; Settings Summary
;   processName,Process1
;   applyToModels,pedal_plunger
;   profileName,PriestAutoConfigDropDownV1mini(Ender3Pla) (modified)
;   profileVersion,2020-01-18 14:41:19
;   baseProfile,Wanhao Duplicator i3 (modified)
;   printMaterial,PLA
;   printQuality,Fast
;   printExtruders,
;   extruderName,Primary Extruder
;   extruderToolheadNumber,0
;   extruderDiameter,0.6
;   extruderAutoWidth,0
;   extruderWidth,0.6
;   extrusionMultiplier,1
;   extruderUseRetract,1
;   extruderRetractionDistance,4
;   extruderExtraRestartDistance,0
;   extruderRetractionZLift,0
;   extruderRetractionSpeed,2400
;   extruderUseCoasting,1
;   extruderCoastingDistance,0.06
;   extruderUseWipe,0
;   extruderWipeDistance,3
;   primaryExtruder,0
;   layerHeight,0.12
;   topSolidLayers,3
;   bottomSolidLayers,3
;   perimeterOutlines,2
;   printPerimetersInsideOut,1
;   startPointOption,3
;   startPointOriginX,0
;   startPointOriginY,235
;   sequentialIslands,0
;   spiralVaseMode,0
;   firstLayerHeightPercentage,100
;   firstLayerWidthPercentage,100
;   firstLayerUnderspeed,0.3
;   useRaft,0
;   raftExtruder,0
;   raftTopLayers,3
;   raftBaseLayers,2
;   raftOffset,3
;   raftSeparationDistance,0.14
;   raftTopInfill,100
;   aboveRaftSpeedMultiplier,0.3
;   useSkirt,1
;   skirtExtruder,0
;   skirtLayers,1
;   skirtOutlines,3
;   skirtOffset,0
;   usePrimePillar,0
;   primePillarExtruder,999
;   primePillarWidth,12
;   primePillarLocation,7
;   primePillarSpeedMultiplier,1
;   useOozeShield,0
;   oozeShieldExtruder,999
;   oozeShieldOffset,2
;   oozeShieldOutlines,1
;   oozeShieldSidewallShape,1
;   oozeShieldSidewallAngle,30
;   oozeShieldSpeedMultiplier,1
;   infillExtruder,0
;   internalInfillPattern,Rectilinear
;   externalInfillPattern,Rectilinear
;   infillPercentage,20
;   outlineOverlapPercentage,10
;   infillExtrusionWidthPercentage,100
;   minInfillLength,1
;   infillLayerInterval,1
;   internalInfillAngles,45,-45
;   overlapInternalInfillAngles,0
;   externalInfillAngles,45,-45
;   generateSupport,1
;   supportExtruder,0
;   supportInfillPercentage,35
;   supportExtraInflation,0.44
;   supportBaseLayers,0
;   denseSupportExtruder,0
;   denseSupportLayers,0
;   denseSupportInfillPercentage,50
;   supportLayerInterval,1
;   supportHorizontalPartOffset,0.5
;   supportUpperSeparationLayers,2
;   supportLowerSeparationLayers,1
;   supportType,0
;   supportGridSpacing,1
;   maxOverhangAngle,60
;   supportAngles,45,-45
;   temperatureName,Primary Extruder,Heated Bed
;   temperatureNumber,0,0
;   temperatureSetpointCount,2,1
;   temperatureSetpointLayers,1,2,1
;   temperatureSetpointTemperatures,230,220,80
;   temperatureStabilizeAtStartup,1,1
;   temperatureHeatedBed,0,1
;   fanLayers,1,2,3,4,5
;   fanSpeeds,0,0,30,60,100
;   blipFanToFullPower,1
;   adjustSpeedForCooling,1
;   minSpeedLayerTime,15
;   minCoolingSpeedSlowdown,20
;   increaseFanForCooling,0
;   minFanLayerTime,20
;   maxCoolingFanSpeed,100
;   increaseFanForBridging,1
;   bridgingFanSpeed,100
;   use5D,1
;   relativeEdistances,0
;   allowEaxisZeroing,1
;   independentExtruderAxes,0
;   includeM10123,0
;   stickySupport,1
;   applyToolheadOffsets,0
;   gcodeXoffset,0
;   gcodeYoffset,0
;   gcodeZoffset,0
;   overrideMachineDefinition,1
;   machineTypeOverride,0
;   strokeXoverride,225
;   strokeYoverride,225
;   strokeZoverride,250
;   originOffsetXoverride,0
;   originOffsetYoverride,-1
;   originOffsetZoverride,0
;   homeXdirOverride,-1
;   homeYdirOverride,-1
;   homeZdirOverride,-1
;   flipXoverride,1
;   flipYoverride,-1
;   flipZoverride,1
;   toolheadOffsets,0,0|0,0|0,0|0,0|0,0|0,0
;   overrideFirmwareConfiguration,1
;   firmwareTypeOverride,RepRap (Marlin/Repetier/Sprinter)
;   GPXconfigOverride,r2
;   baudRateOverride,115200
;   overridePrinterModels,1
;   printerModelsOverride
;   startingGcode,M117 Gnomes are working,G28  ;  home  all  axes,M204 P500 T1000,M205 X8 Y8 ; set jerk x/y=8,G1  X0  Y20  Z0.2  F3000  ;  get  ready  to  prime,G92  E0  ;  reset  extrusion  distance,G1  F200  E25  ;  extrude  filament,G92  E0  ;  reset  extrusion  distance  again,,,,,
;   layerChangeGcode,
;   retractionGcode,
;   toolChangeGcode,
;   endingGcode,M104 S0 ; turn off extruder,M140 S0 ; turn off bed,G1 X0 Y295 F1000 ; move finished print out front,M84 ; disable motors,M106 S0 ; turn off cooling fan,,; EndBeep,M300 S294 P200 ;D4: 294,M117 Jobs Finished!
;   exportFileFormat,gcode
;   celebration,0
;   celebrationSong,Star Wars
;   postProcessing,
;   defaultSpeed,2400
;   outlineUnderspeed,0.5
;   solidInfillUnderspeed,0.8
;   supportUnderspeed,0.8
;   rapidXYspeed,7200
;   rapidZspeed,1002
;   minBridgingArea,50
;   bridgingExtraInflation,0
;   bridgingExtrusionMultiplier,0.98
;   bridgingSpeedMultiplier,1.05
;   useFixedBridgingAngle,0
;   fixedBridgingAngle,0
;   applyBridgingToPerimeters,1
;   filamentDiameters,1.735|1.73|1.73|1.73|1.73|1.73
;   filamentPricesPerKg,18|18|18|18|18|18
;   filamentDensities,1.25|1.25|1.25|1.25|1.25|1.25
;   useMinPrintHeight,0
;   minPrintHeight,63.5
;   useMaxPrintHeight,0
;   maxPrintHeight,26.7
;   useDiaphragm,0
;   diaphragmLayerInterval,20
;   robustSlicing,1
;   mergeAllIntoSolid,0
;   onlyRetractWhenCrossingOutline,0
;   retractBetweenLayers,1
;   useRetractionMinTravel,1
;   retractionMinTravel,2.8
;   retractWhileWiping,1
;   onlyWipeOutlines,1
;   avoidCrossingOutline,1
;   maxMovementDetourFactor,3
;   toolChangeRetractionDistance,12
;   toolChangeExtraRestartDistance,-0.5
;   toolChangeRetractionSpeed,600
;   externalThinWallType,1
;   internalThinWallType,2
;   thinWallAllowedOverlapPercentage,15
;   singleExtrusionMinLength,1
;   singleExtrusionMinPrintingWidthPercentage,50
;   singleExtrusionMaxPrintingWidthPercentage,200
;   singleExtrusionEndpointExtension,0.2
;   horizontalSizeCompensation,0
G90
M82
M106 S0
M140 S80
M190 S80
M104 S230 T0
M109 S230 T0
M117 Gnomes are working
G28  ;  home  all  axes
M204 P500 T1000
M205 X8 Y8 ; set jerk x/y=8
G1  X0  Y20  Z0.2  F3000  ;  get  ready  to  prime
G92  E0  ;  reset  extrusion  distance
G1  F200  E25  ;  extrude  filament
G92  E0  ;  reset  extrusion  distance  again
; process Process1
; layer 1, Z = 0.120
T0
G92 E0.0000
G1 E-4.0000 F2400
; feature skirt
; tool H0.120 W0.600
G1 Z0.120 F1002
G1 X69.216 Y92.460 F7200
G1 E0.0000 F2400
G92 E0.0000
G1 X69.040 Y92.284 E0.0076 F720
G1 X69.040 Y85.716 E0.2076
G1 X69.216 Y85.540 E0.2152
G1 X155.784 Y85.540 E2.8515
G1 X155.960 Y85.716 E2.8591
G1 X155.960 Y92.284 E3.0591
G1 X155.784 Y92.460 E3.0667
G1 X69.216 Y92.460 E5.7031
G92 E0.0000
G1 E-4.0000 F2400
G1 X93.719 Y140.660 F7200
G1 E0.0000 F2400
G92 E0.0000
G1 X92.840 Y139.781 E0.0378 F720
G1 X92.840 Y136.219 E0.1463
G1 X93.719 Y135.340 E0.1842
G1 X95.840 Y135.340 E0.2488
G1 X95.840 Y131.660 E0.3609
G1 X95.719 Y131.660 E0.3646
G1 X94.840 Y130.781 E0.4024
G1 X94.840 Y130.660 E0.4061
G1 X94.719 Y130.660 E0.4098
G1 X93.840 Y129.781 E0.4476
G1 X93.840 Y100.660 E1.3345
G1 X93.719 Y100.660 E1.3382
G1 X92.840 Y99.781 E1.3760
G1 X92.840 Y98.660 E1.4102
G1 X92.719 Y98.660 E1.4139
G1 X91.840 Y97.781 E1.4517
G1 X91.840 Y95.861 E1.5102
G1 X89.764 Y95.859 E1.5734
G1 X89.676 Y95.854 E1.5761
G1 X88.411 Y95.703 E1.6149
G1 X69.379 Y95.703 E2.1945
G1 X68.500 Y94.825 E2.2323
G1 X68.500 Y93.441 E2.2745
G1 X67.840 Y92.781 E2.3029
G1 X67.840 Y85.219 E2.5332
G1 X68.719 Y84.340 E2.5711
G1 X156.281 Y84.340 E5.2377
G1 X157.160 Y85.219 E5.2755
G1 X157.160 Y92.781 E5.5058
G1 X156.500 Y93.441 E5.5343
G1 X156.500 Y94.825 E5.5764
G1 X155.621 Y95.703 E5.6142
G1 X136.589 Y95.703 E6.1939
G1 X135.324 Y95.854 E6.2327
G1 X135.235 Y95.859 E6.2354
G1 X133.160 Y95.860 E6.2986
G1 X133.160 Y97.781 E6.3571
G1 X132.281 Y98.660 E6.3949
G1 X132.160 Y98.660 E6.3986
G1 X132.160 Y99.781 E6.4328
G1 X131.281 Y100.660 E6.4706
G1 X131.160 Y100.660 E6.4743
G1 X131.160 Y102.781 E6.5389
G1 X130.281 Y103.660 E6.5768
G1 X130.160 Y103.660 E6.5804
G1 X130.160 Y130.781 E7.4064
G1 X129.281 Y131.660 E7.4442
G1 X129.160 Y131.660 E7.4479
G1 X129.160 Y131.781 E7.4516
G1 X128.281 Y132.660 E7.4895
G1 X128.160 Y132.660 E7.4932
G1 X128.160 Y134.340 E7.5443
G1 X131.281 Y134.340 E7.6394
G1 X132.160 Y135.219 E7.6772
G1 X132.160 Y140.781 E7.8466
G1 X131.281 Y141.660 E7.8845
G1 X115.719 Y141.660 E8.3584
G1 X114.840 Y140.781 E8.3963
G1 X114.840 Y133.660 E8.6131
G1 X107.160 Y133.660 E8.8470
G1 X107.160 Y134.340 E8.8677
G1 X113.281 Y134.340 E9.0541
G1 X114.160 Y135.219 E9.0920
G1 X114.160 Y140.781 E9.2614
G1 X113.281 Y141.660 E9.2992
G1 X96.719 Y141.660 E9.8036
G1 X95.840 Y140.781 E9.8415
G1 X95.840 Y140.660 E9.8452
G1 X93.719 Y140.660 E9.9098
G1 X93.967 Y140.060 F7200
G92 E0.0000
G1 X93.440 Y139.533 E0.0227 F720
G1 X93.440 Y136.467 E0.1161
G1 X93.967 Y135.940 E0.1388
G1 X96.440 Y135.940 E0.2141
G1 X96.440 Y131.060 E0.3627
G1 X95.967 Y131.060 E0.3771
G1 X95.440 Y130.533 E0.3998
G1 X95.440 Y130.060 E0.4142
G1 X94.967 Y130.060 E0.4286
G1 X94.440 Y129.533 E0.4513
G1 X94.440 Y100.060 E1.3489
G1 X93.967 Y100.060 E1.3633
G1 X93.440 Y99.533 E1.3860
G1 X93.440 Y98.060 E1.4308
G1 X92.967 Y98.060 E1.4452
G1 X92.440 Y97.533 E1.4679
G1 X92.440 Y95.261 E1.5371
G1 X89.782 Y95.259 E1.6180
G1 X89.730 Y95.256 E1.6196
G1 X88.447 Y95.103 E1.6590
G1 X69.627 Y95.103 E2.2321
G1 X69.100 Y94.576 E2.2548
G1 X69.100 Y93.547 E2.2862
G1 X69.586 Y93.060 E2.3071
G1 X68.967 Y93.060 E2.3260
G1 X68.440 Y92.533 E2.3487
G1 X68.440 Y85.467 E2.5639
G1 X68.967 Y84.940 E2.5866
G1 X156.033 Y84.940 E5.2381
G1 X156.560 Y85.467 E5.2608
G1 X156.560 Y92.533 E5.4760
G1 X156.033 Y93.060 E5.4987
G1 X155.413 Y93.060 E5.5175
G1 X155.900 Y93.546 E5.5385
G1 X155.900 Y94.576 E5.5698
G1 X155.373 Y95.103 E5.5925
G1 X136.553 Y95.103 E6.1657
G1 X135.270 Y95.256 E6.2050
G1 X135.217 Y95.259 E6.2066
G1 X132.560 Y95.260 E6.2876
G1 X132.560 Y97.533 E6.3568
G1 X132.033 Y98.060 E6.3795
G1 X131.560 Y98.060 E6.3939
G1 X131.560 Y99.533 E6.4387
G1 X131.033 Y100.060 E6.4614
G1 X130.560 Y100.060 E6.4758
G1 X130.560 Y102.533 E6.5511
G1 X130.033 Y103.060 E6.5739
G1 X129.560 Y103.060 E6.5883
G1 X129.560 Y130.533 E7.4249
G1 X129.033 Y131.060 E7.4476
G1 X128.560 Y131.060 E7.4620
G1 X128.560 Y131.533 E7.4764
G1 X128.033 Y132.060 E7.4991
G1 X127.560 Y132.060 E7.5135
G1 X127.560 Y134.940 E7.6012
G1 X131.033 Y134.940 E7.7070
G1 X131.560 Y135.467 E7.7297
G1 X131.560 Y140.533 E7.8840
G1 X131.033 Y141.060 E7.9067
G1 X115.967 Y141.060 E8.3655
G1 X115.440 Y140.533 E8.3882
G1 X115.440 Y133.060 E8.6157
G1 X106.560 Y133.060 E8.8862
G1 X106.560 Y134.940 E8.9434
G1 X113.033 Y134.940 E9.1406
G1 X113.560 Y135.467 E9.1633
G1 X113.560 Y140.533 E9.3175
G1 X113.033 Y141.060 E9.3402
G1 X96.967 Y141.060 E9.8295
G1 X96.440 Y140.533 E9.8522
G1 X96.440 Y140.060 E9.8666
G1 X93.967 Y140.060 E9.9419
G1 X94.216 Y139.460 F7200
G92 E0.0000
G1 X94.040 Y139.284 E0.0076 F720
G1 X94.040 Y136.716 E0.0858
G1 X94.216 Y136.540 E0.0934
G1 X97.040 Y136.540 E0.1794
G1 X97.040 Y130.460 E0.3645
G1 X96.216 Y130.460 E0.3896
G1 X96.040 Y130.284 E0.3972
G1 X96.040 Y129.460 E0.4223
G1 X95.216 Y129.460 E0.4474
G1 X95.040 Y129.284 E0.4550
G1 X95.040 Y99.460 E1.3632
G1 X94.216 Y99.460 E1.3883
G1 X94.040 Y99.284 E1.3959
G1 X94.040 Y97.460 E1.4515
G1 X93.216 Y97.460 E1.4766
G1 X93.040 Y97.284 E1.4841
G1 X93.040 Y94.738 E1.5617
G1 X93.116 Y94.662 E1.5650
G1 X89.801 Y94.659 E1.6659
G1 X89.783 Y94.658 E1.6665
G1 X88.482 Y94.503 E1.7063
G1 X69.876 Y94.503 E2.2730
G1 X69.700 Y94.328 E2.2806
G1 X69.700 Y93.795 E2.2968
G1 X69.876 Y93.619 E2.3044
G1 X155.124 Y93.619 E4.9005
G1 X155.300 Y93.795 E4.9081
G1 X155.300 Y94.328 E4.9243
G1 X155.124 Y94.503 E4.9319
G1 X136.518 Y94.503 E5.4985
G1 X135.217 Y94.658 E5.5384
G1 X135.199 Y94.659 E5.5389
G1 X131.884 Y94.660 E5.6399
G1 X131.960 Y94.736 E5.6432
G1 X131.960 Y97.284 E5.7208
G1 X131.784 Y97.460 E5.7283
G1 X130.960 Y97.460 E5.7534
G1 X130.960 Y99.284 E5.8090
G1 X130.784 Y99.460 E5.8166
G1 X129.960 Y99.460 E5.8417
G1 X129.960 Y102.284 E5.9277
G1 X129.784 Y102.460 E5.9353
G1 X128.960 Y102.460 E5.9604
G1 X128.960 Y130.284 E6.8077
G1 X128.784 Y130.460 E6.8153
G1 X127.960 Y130.460 E6.8404
G1 X127.960 Y131.284 E6.8655
G1 X127.784 Y131.460 E6.8731
G1 X126.960 Y131.460 E6.8982
G1 X126.960 Y135.540 E7.0224
G1 X130.784 Y135.540 E7.1389
G1 X130.960 Y135.716 E7.1464
G1 X130.960 Y140.284 E7.2856
G1 X130.784 Y140.460 E7.2931
G1 X116.216 Y140.460 E7.7368
G1 X116.040 Y140.284 E7.7444
G1 X116.040 Y132.460 E7.9827
G1 X105.960 Y132.460 E8.2896
G1 X105.960 Y135.540 E8.3834
G1 X112.784 Y135.540 E8.5913
G1 X112.960 Y135.716 E8.5988
G1 X112.960 Y140.284 E8.7380
G1 X112.784 Y140.460 E8.7455
G1 X97.216 Y140.460 E9.2196
G1 X97.040 Y140.284 E9.2272
G1 X97.040 Y139.460 E9.2523
G1 X94.216 Y139.460 E9.3383
G92 E0.0000
G1 E-4.0000 F2400
; feature external single extrusion
; tool H0.120 W0.300
G1 X70.039 Y94.061 F7200
G1 E0.0000 F2400
G92 E0.0000
G1 X88.381 Y94.061 E0.2793 F360
G1 X88.507 Y94.061 E0.2812
G1 X88.627 Y94.068 E0.2831
; tool H0.120 W0.303
G1 X88.740 Y94.074 E0.2848
; tool H0.120 W0.315
G1 X88.852 Y94.080 E0.2866
; tool H0.120 W0.327
G1 X88.965 Y94.086 E0.2884
; tool H0.120 W0.338
G1 X89.077 Y94.091 E0.2904
; tool H0.120 W0.350
G1 X89.190 Y94.097 E0.2924
; tool H0.120 W0.362
G1 X89.302 Y94.103 E0.2945
; tool H0.120 W0.374
G1 X89.415 Y94.109 E0.2966
; tool H0.120 W0.386
G1 X89.527 Y94.115 E0.2988
; tool H0.120 W0.398
G1 X89.640 Y94.121 E0.3011
; tool H0.120 W0.411
G1 X89.774 Y94.129 E0.3039
; tool H0.120 W0.431
G1 X89.844 Y94.141 E0.3054
; tool H0.120 W0.442
G1 X89.929 Y94.139 E0.3073
; tool H0.120 W0.443
G1 X96.132 Y94.142 E0.4467
; tool H0.120 W0.445
G1 X96.251 Y94.142 E0.4494
; tool H0.120 W0.445
G1 X96.371 Y94.142 E0.4521
; tool H0.120 W0.443
G1 X135.071 Y94.139 E1.3214
; tool H0.120 W0.442
G1 X135.156 Y94.141 E1.3233
; tool H0.120 W0.431
G1 X135.226 Y94.129 E1.3248
; tool H0.120 W0.411
G1 X135.360 Y94.121 E1.3276
; tool H0.120 W0.398
G1 X135.473 Y94.115 E1.3299
; tool H0.120 W0.386
G1 X135.585 Y94.109 E1.3321
; tool H0.120 W0.374
G1 X135.698 Y94.103 E1.3343
; tool H0.120 W0.362
G1 X135.810 Y94.097 E1.3363
; tool H0.120 W0.350
G1 X135.923 Y94.091 E1.3383
; tool H0.120 W0.338
G1 X136.035 Y94.086 E1.3403
; tool H0.120 W0.327
G1 X136.148 Y94.080 E1.3421
; tool H0.120 W0.315
G1 X136.260 Y94.074 E1.3439
; tool H0.120 W0.303
G1 X136.373 Y94.068 E1.3457
; tool H0.120 W0.300
G1 X136.493 Y94.061 E1.3475
G1 X136.619 Y94.061 E1.3494
G1 X154.901 Y94.061 E1.6278
G1 X154.961 Y94.061 F360
G92 E0.0000
G1 E-4.0000 F2400
; feature support
; tool H0.120 W0.600
G1 X71.863 Y91.758 F7200
G1 E0.0000 F2400
G92 E0.0000
G1 X69.650 Y89.545 E0.0953 F576
G1 X69.650 Y87.121 E0.1692
G1 X74.288 Y91.758 E0.3689
G1 X76.712 Y91.758 E0.4427
G1 X71.104 Y86.150 E0.6843
G1 X73.528 Y86.150 E0.7581
G1 X79.136 Y91.758 E0.9996
G1 X81.561 Y91.758 E1.0735
G1 X75.953 Y86.150 E1.3150
G1 X78.377 Y86.150 E1.3888
G1 X83.985 Y91.758 E1.6304
G1 X86.409 Y91.758 E1.7042
G1 X80.801 Y86.150 E1.9457
G1 X83.226 Y86.150 E2.0196
G1 X88.834 Y91.758 E2.2611
G1 X91.258 Y91.758 E2.3349
G1 X85.650 Y86.150 E2.5765
G1 X88.074 Y86.150 E2.6503
G1 X93.683 Y91.758 E2.8918
G1 X96.107 Y91.758 E2.9657
G1 X90.499 Y86.150 E3.2072
G1 X92.923 Y86.150 E3.2810
G1 X98.531 Y91.758 E3.5226
G1 X100.956 Y91.758 E3.5964
G1 X95.347 Y86.150 E3.8379
G1 X97.772 Y86.150 E3.9118
G1 X103.380 Y91.758 E4.1533
G1 X105.804 Y91.758 E4.2271
G1 X100.196 Y86.150 E4.4687
G1 X102.621 Y86.150 E4.5425
G1 X108.229 Y91.758 E4.7840
G1 X110.653 Y91.758 E4.8579
G1 X105.045 Y86.150 E5.0994
G1 X107.469 Y86.150 E5.1732
G1 X113.078 Y91.758 E5.4148
G1 X115.502 Y91.758 E5.4886
G1 X109.894 Y86.150 E5.7301
G1 X112.318 Y86.150 E5.8040
G1 X117.926 Y91.758 E6.0455
G1 X120.351 Y91.758 E6.1193
G1 X114.742 Y86.150 E6.3609
G1 X117.167 Y86.150 E6.4347
G1 X122.775 Y91.758 E6.6762
G1 X125.199 Y91.758 E6.7501
G1 X119.591 Y86.150 E6.9916
G1 X122.016 Y86.150 E7.0654
G1 X127.624 Y91.758 E7.3070
G1 X130.048 Y91.758 E7.3808
G1 X124.440 Y86.150 E7.6223
G1 X126.864 Y86.150 E7.6962
G1 X132.472 Y91.758 E7.9377
G1 X134.897 Y91.758 E8.0115
G1 X129.289 Y86.150 E8.2531
G1 X131.713 Y86.150 E8.3269
